X: 30206
T: Old Grey Goose, The
R: jig
M: 6/8
K: Adorian
|:F|GBG FAF|GEE EFE|DFA dAG|FDD DEF|
E2E FEF|GFG gfg|edB BAF|GEE E2:|
|:B|efe edB|def g2e|fdd add|gag fed|
gfg fge|def g3|edB BAF|GEE E2:|
|:c|BAG AGF|GEE E2c|BGG dGG|FDD D2c|
BAG AGF|GEE gfg|edB BAF|GEE E2:|

